X:1
T:Title
%%score ( 1 2 ) { 3 | 4 }
L:1/8
Q:1/4=100
M:4/4
K:E
V:1 treble nm="Grand Piano, Soprano"
V:2 treble 
V:3 bass nm="Choir Pad, No Night in Heaven"
V:4 bass 
V:1
 E2 [EG]2 [EB]2 [EB]2- | [EB]E [EG]2 [DF]2 E2- | E[EG] [DF]2 [DB]2 [DB]2- | %3
w: By~Albert~Caswell~Neece * * *|||
 [DB][Fd] [Fc]2 [E^A]2 [DB]2 | E2 [EG]2 [GB]2 [GB]2- | [GB][EG] [EA]2 [EB]2 [Ec]2- | %6
w: |||
 [Ec][Ec] [Ae]2 [Ac]2 [GB]2- | [GB]E [DF]2 [DG]2 E>G | z2 B6 | z2 F6 | %10
w: ||||
 [DF]>[EG] A->[DA-] [FA-]>[EA-] [DA]>d | z2 G6 | [GB]>[EG] e->[Ge-] [Ae-]>[Ae-] [Ge]>[EG] | %13
w: |||
 [FA]>[GB] [Ac]4- [Ac]>[Ac] | [Ae]>[Ac] [GB]2- [GB]E [DF]2 | [DG]2 E6- | E2 z2 z4 |] %17
w: ||||
V:2
 x8 | x8 | x8 | x8 | x8 | x8 | x8 | x8 | G>A z z/ G/ G>F E>[EG] | [Ge]>[EG] D>D D>D D>[DF] | %10
 z2 F2 z4 | c>A z z/ E/ E>E E>[GB] | z2 G2 z4 | x8 | x8 | x8 | x8 |] %17
V:3
 G,2 B,2 G,2 G,2- | G,G, B,2 A,2 G,2- | G,B, B,2 F,2 F,2- | F,B, ^A,2 C2 B,2 | G,2 B,2 B,2 B,2- | %5
 B,B, A,2 G,2 A,2- | A,A,[K:treble] C2 E2 E2- | EG,[K:bass] A,2 B,2 G,>E, | E,>F, G,>B, B,>A, G,2 | %9
 z2 z z/ B,/ B,>B, B,2 | z2 z z/ B,/ D>C B,>B, | A,>F, E,>B, B,>B, B,2 | z2 z z/ B,/ C>^B, =B,2 | %13
 z2 z z/[K:treble] E/ E>E E>E | C>E E2- E[K:bass]G, A,2 | B,2 G,6- | G,2 z2 z4 |] %17
V:4
 E,2 E,2 E,2 E,2- | E,E, B,,2 B,,2 E,2- | E,E, B,,2 B,,2 B,,2- | B,,B,, F,2 F,2 B,,2 | %4
 E,2 E,2 E,2 E,2- | E,=D, C,2 B,,2 A,,2- | A,,2 A,2 A,2 E,2- | E,E, B,,2 B,,2 E,2 | %8
 z2 z z/ E,/ E,>E, E,2 | z2 z z/ B,,/ B,,>B,, B,,2 | z2 z z/ B,,/ B,,>B,, B,,2 | %11
 z2 z z/ E,/ E,>E, E,2 | z2 z z/ E,/ E,>E, E,2 | z2 z z/ A,/ A,>A, A,>A, | A,>A, E,2- E,E, B,,2 | %15
 B,,2 E,6- | E,2 z2 z4 |] %17

